X: 1525
T: Harry McQueen's Polka Mazurka
B: australian traditional tunes wiki
M:3/4
L:1/8
R: Polka Mazurka
Q: 1/4=100
K:G
V:1 
"G"D>FG2G2|"D7"D>EF2F2|C>DE2E2|"C"E2-E2D>B,|
"G"G,>B,D2D2|"D7"G,>B,C2C2|"G"B,2D3B,|"D7"A,6|
"G"D>FG2G2|"D7"D>EF2F2|C>DE2E2|"C"E2-E2D2|
"G"G2A>G F>E|"D7"F2E2E2|D2F2A>F|"G"G4z2||
% abcbook-tune_id 6342d53a36e9b629802cc2f9


% abcbook-boost 0
% abcbook-tablature 
% abcbook-transpose 
% abcbook-lastupdated 1665324369306
% abcbook-soundfonts 
% abcbook-repeats 1
% NFF Book 2008

